X: 63
T:I Buried My Wife And Danced On Her Grave
M:6/8
L:1/8
R:Jig
K:D Mixolydian
|:"D"FED EFG|AdB "C"cAG|"D"A2A {c}BAG|"C"F2F {A}GED|!
"D"FED EFG|AdB "C"cAG|"D"F2F "C"GEA|"D"DED D3:|!
K:D!
|:"D"d2 e fed|faf "G"gfe|"D"d2 e fed|"A"dcA dcA|!
"D"d2 e fed|fed cAG|"D"F2F "C"{A}GEA|"D"DED D3:|!

